X:3161
T:Col. McBain's Reel
M:4/4
L:1/8
K:Gm
G/A/|BdGd BGdB|AcFc AFcF|BdGd BGdB|dcBA BGGA|!
BdGd BGdB|AcFc AFcA|G^FGA Bcde|fdcA BGG:|!
|:A|B2 BA Bdfd|cdcB ABcA|G2 g2 g^fga|bgg^f g2 ga|!
bag^f gdd=e|fdcB AFFA|BAGF DGGA|BdcA G3:|!


